!!!OTL: Verkehrtes Lied (2-100) S. 291
!!!id: P0971
**kern
*clefG2
*k[f#]
*G:
{8d
=1
8d
8g
8g
8b
=2
8b
8a
8g
8f#
=3
4.g}
=4
{8b
=5
8b
8dd
8dd
8ee
=6
8cc
8cc
8cc}
=7
{8dd
=8
8b
8b
16b
16a
8g
=9
8a
8a
8a}
=10
{8cc
=11
8b
8b
8a
8g
=12
4g}
8r
==
*-
!!!minrhy: 16
!!!meters: 2/4 ]  ZZ[4
!!!cut: Verkehrtes Lied (2-100) S. 291
!!!reg: Lothringen
!!!trd: PINCK, Louis: Verklingende Weisen, Bd 2, Metz 1928
!!!rhy1: X_  X_X_X_X_  X_X_X_X_  X__.   (x2)
!!!rhy2: X_  X_X_X_X_  X_X_X_
!!!key: P0971  16  G 2/4 ]  ZZ[4
!!!mod: HEPTATONIK IONISCH]  AMBITUS[9
!!!kad: 1421
!!!akz: -531_34_32_31_
!!!fot: 'a__b__bs"c__
!!!for: 'a__aw_b__aw_
!!!fok: '^a_^a_\__\__
!! PHRAS[AUFTAKTIG]
!!!fkt: ???
!! LOTH VKL
!! PR[13] 2K[10] 2G[24] 3K[0] 3G[1] 4A[0] 4Ü[0] 5A[3] 6K[0] 6G[0]
!! 7K[0] 7G[0] 8A[0] MEHR[0] SI[38] ABS[71] SR[34] SP[4]
!! ST[16] 2k[11] 2g[37] 3k[1] 3g[0] 4d[0] 4ü[0] 5d[0] 6k[0] 6g[0]
!! 7k[0] 7g[0] 8d[0] mehr[0] si[49] dm[-11] sr[48] sp[1]
!! 1F[55] 2F[33] 3F[8] 4F[0] LF[0] 2P[4] 3P[0] 4P[0] TRI[0] DF[4] AB[78]
!! TF[0] U3K[0] U3[0] U4[0] U4Ü[0] U5[0] U6K[0] U6[0] U7K[0] U7[0]
!! N1[10] N2K[0] N2[26] N3K[0] N3[22] N4[21] N4Ü[0] N5[18] N6K[0] N6[3]
!!!n7k: 0] N7[0] O1[0] O2K[0] O2[0] O3K[0] O3[0] HÖ[0
